icons/desktop/16/svg/tab-group-16.svg

<svg width="16" height="16" viewBox="0 0 16 16" fill="none" xmlns="http://www.w3.org/2000/svg">
<path fill-rule="evenodd" clip-rule="evenodd" d="M9.5 3C10.8004 3 12.1832 3.03693 13.6367 3.12695L13.6357 3.12793C14.9519 3.20868 16 4.29019 16 5.625V11.373C16 12.6176 15.0935 13.6523 13.8926 13.8447L13.6484 13.8711C12.338 13.952 10.9524 14 9.5 14C8.19962 14 6.81676 13.9631 5.36328 13.873C4.04751 13.7919 3 12.7095 3 11.375V5.62695C3.00002 4.29954 4.03173 3.21148 5.35156 3.12891C6.66197 3.04802 8.04764 3 9.5 3ZM9.5 4.5C8.08042 4.5 6.72588 4.5459 5.44434 4.625C4.91043 4.65864 4.50002 5.09656 4.5 5.62695V11.375C4.5 11.8672 4.86374 12.2862 5.35547 12.3643L5.45605 12.375C6.87657 12.463 8.22838 12.5 9.5 12.5C10.9192 12.5 12.2734 12.4531 13.5547 12.374C14.0888 12.3406 14.5 11.9036 14.5 11.373V7H10.5C9.948 7 9.5 6.552 9.5 6V4.5Z" fill="black"/>
<path d="M8 0C8.20096 0 7.77117 0.00476659 8.26172 0.00976562C8.67166 0.0137651 8.99991 0.346911 9 0.756836C9 1.16984 8.66788 1.50491 8.25488 1.50391C6.13604 1.49791 4.39116 1.54545 2.44531 1.64844C1.91531 1.67644 1.5 2.11646 1.5 2.64746V8.50098C1.5 8.91498 1.164 9.25098 0.75 9.25098C0.336 9.24998 0 8.914 0 8.5V2.64648C0 1.31352 1.04696 0.219471 2.37891 0.149414C4.24991 0.0504141 6.142 0 8 0Z" fill="black"/>
</svg>

<!-- This Source Code Form is subject to the terms of the Mozilla Public
   - License, v. 2.0. If a copy of the MPL was not distributed with this
   - file, You can obtain one at http://mozilla.org/MPL/2.0/. -->
<svg xmlns="http://www.w3.org/2000/svg" width="16" height="16" fill="context-fill" fill-opacity="context-fill-opacity" viewBox="0 0 16 16">
    <path fill-rule="evenodd" d="M9.5 3c1.3 0 2.683.037 4.137.127h-.001A2.51 2.51 0 0 1 16 5.626v5.748c0 1.245-.906 2.28-2.107 2.472l-.245.026a67 67 0 0 1-8.285.002A2.51 2.51 0 0 1 3 11.375V5.627a2.503 2.503 0 0 1 2.352-2.498C6.662 3.048 8.048 3 9.5 3m0 1.5c-1.42 0-2.774.046-4.056.125A1.003 1.003 0 0 0 4.5 5.627v5.748c0 .492.364.911.855.99l.101.01a65 65 0 0 0 8.099-.001c.534-.033.945-.47.945-1.001V7h-4a1 1 0 0 1-1-1z" clip-rule="evenodd" />
    <path d="M8 0c.201 0-.229.005.262.01.41.004.738.337.738.747a.744.744 0 0 1-.745.747 99 99 0 0 0-5.81.144 1 1 0 0 0-.945 1V8.5A.75.75 0 1 1 0 8.5V2.646A2.504 2.504 0 0 1 2.379.15 107 107 0 0 1 8 0" />
</svg>
